X:460
T:Happy to Meet-Sorry to Part Jig
M:6/8
L:1/8
Z:abc by Bruce Osborne - bosborne@kos.net
K:G
g/e/|dBB BAB|GEF G2 A|Bee dBA|B2 B gfe|!
dBB BAB|GEF G2 A|Bee dBA|BGG G2:|!
|:e|g2 g fed|Bdd def|g2 g fed|Bee e2 f|!
g2 g fed|Bdd def|gfg eag|fef g2:|!
